main-pages/gulp-scss-starter/dist/img/default/offer/services14.svg

<svg width="26" height="20" viewBox="0 0 26 20" fill="none" xmlns="http://www.w3.org/2000/svg">
<path fill-rule="evenodd" clip-rule="evenodd" d="M7.36769 10.5011C6.8902 10.2165 6.15137 10.0043 5.52129 10.0666C5.20555 10.0977 4.91273 10.1983 4.69477 10.3981C4.47581 10.5988 4.33777 10.8946 4.32347 11.305C4.30548 11.7017 4.60278 12.4945 5.68385 12.9489C6.2301 13.1785 6.77901 13.1321 7.22939 12.9811C7.67845 12.8306 8.03511 12.5742 8.19875 12.3752C8.36862 12.1686 8.41994 11.852 8.29955 11.5129C8.17904 11.1734 7.88693 10.8105 7.36769 10.5011ZM4.42409 11.3087C4.43757 10.9205 4.56693 10.6518 4.7628 10.4723C4.95973 10.2918 5.22929 10.1966 5.53119 10.1668C6.13638 10.107 6.85391 10.3121 7.31615 10.5876C7.82042 10.8881 8.09382 11.2343 8.20467 11.5466C8.31564 11.8592 8.26418 12.1371 8.12098 12.3112C7.97157 12.4929 7.6322 12.7399 7.19738 12.8857C6.76389 13.031 6.24108 13.0739 5.72287 12.8561C4.67528 12.4157 4.4081 11.6584 4.42407 11.3093L4.42409 11.3087Z" stroke="#616161"/>
<path fill-rule="evenodd" clip-rule="evenodd" d="M18.6113 10.501C19.0888 10.2165 19.8276 10.0043 20.4577 10.0666C20.7734 10.0977 21.0662 10.1983 21.2842 10.398C21.5032 10.5987 21.6412 10.8945 21.6555 11.3048C21.6735 11.7015 21.3762 12.4943 20.2951 12.9486C19.7489 13.1782 19.2 13.1318 18.7496 12.9809C18.3005 12.8303 17.9439 12.5739 17.7802 12.375C17.6104 12.1684 17.5591 11.8519 17.6794 11.5128C17.8 11.1733 18.0921 10.8104 18.6113 10.501ZM21.5549 11.3086C21.5414 10.9205 21.412 10.6518 21.2162 10.4723C21.0192 10.2918 20.7497 10.1966 20.4478 10.1668C19.8426 10.107 19.1251 10.3121 18.6628 10.5875C18.1586 10.888 17.8852 11.2342 17.7743 11.5464C17.6634 11.859 17.7148 12.1369 17.858 12.311C18.0074 12.4927 18.3468 12.7396 18.7816 12.8854C19.2151 13.0307 19.7379 13.0736 20.2561 12.8558C21.3037 12.4155 21.5709 11.6582 21.5549 11.3092L21.5549 11.3086Z" stroke="#616161"/>
<path fill-rule="evenodd" clip-rule="evenodd" d="M5.90147 4.71914C7.59754 0.80666 13.0755 1.00502 13.0755 1.00502C13.0755 1.00502 18.4506 0.716337 20.0985 4.51771L20.4421 5.5016C20.9439 5.22241 22.1071 4.75059 23.2735 4.82836C24.5112 4.91087 24.9289 5.79402 24.9815 6.23202L24.9817 6.23334L24.984 6.26763C25.0005 6.51264 25.0213 6.82092 24.949 7.11841C24.8727 7.43252 24.6926 7.7349 24.3007 7.94393C24.0216 8.09278 23.7753 8.14047 23.5856 8.15287C23.4984 8.15857 23.4235 8.15679 23.3636 8.15411C23.8913 8.59739 24.2267 9.26217 24.2267 10.0053L24.2268 16.6004C24.2268 17.7959 23.2575 18.7652 22.062 18.7652C20.8664 18.7652 19.8972 17.7959 19.8972 16.6004V15.2411H6.10285L6.10285 16.6004C6.10285 17.7959 5.13364 18.7652 3.93805 18.7652C2.74247 18.7652 1.77326 17.7959 1.77326 16.6004L1.77325 10.0053C1.77325 9.257 2.11336 8.58815 2.64743 8.14489C2.58586 8.14783 2.50704 8.15022 2.41439 8.14416C2.22468 8.13177 1.97837 8.08408 1.69927 7.93524C1.30736 7.72623 1.12735 7.42387 1.05101 7.10978C0.978718 6.81231 0.999514 6.50405 1.01604 6.25906L1.01834 6.22478L1.0185 6.22346C1.07106 5.78548 1.48885 4.90241 2.7265 4.8199C3.92958 4.7397 5.12925 5.24414 5.60328 5.51884L5.90147 4.71914ZM24.1261 15.1404H1.87394L1.87394 10.0053C1.87394 8.72629 2.91077 7.68945 4.18977 7.68945H21.8102C23.0892 7.68945 24.1261 8.72629 24.1261 10.0053L24.1261 15.1404ZM19.9978 15.2411V16.6004C19.9978 17.7403 20.922 18.6645 22.062 18.6645C23.2019 18.6645 24.1261 17.7403 24.1261 16.6004L24.1261 15.2411H19.9978ZM6.00217 15.2411H1.87394L1.87394 16.6004C1.87394 17.7403 2.79808 18.6645 3.93805 18.6645C5.07803 18.6645 6.00217 17.7403 6.00217 16.6004L6.00217 15.2411ZM23.2295 8.04925C23.2433 8.04834 23.2584 8.04852 23.2735 8.049C23.2886 8.04949 23.306 8.0504 23.3248 8.05138L23.3251 8.05139C23.3343 8.05187 23.3438 8.05237 23.3535 8.05284C23.4141 8.05579 23.49 8.05822 23.5791 8.0524C23.7569 8.04078 23.9888 7.99617 24.2533 7.85509C24.6166 7.66132 24.7807 7.3847 24.8511 7.09464C24.9197 6.81264 24.8999 6.51825 24.8832 6.27061L24.8814 6.24272C24.8326 5.84106 24.4444 5.00734 23.2668 4.92882C22.114 4.85196 20.9579 5.32622 20.4758 5.59813L21.1709 7.58871L21.8102 7.58877C22.3406 7.58877 22.831 7.7596 23.2295 8.04925ZM4.18977 7.58877C3.66418 7.58877 3.17778 7.75656 2.78121 8.04151C2.76471 8.03956 2.74561 8.03968 2.72652 8.04029C2.71142 8.04078 2.69397 8.04169 2.67515 8.04267L2.66427 8.04324L2.64651 8.04413C2.58592 8.04708 2.51006 8.04951 2.42095 8.04369C2.24313 8.03207 2.01118 7.98746 1.74665 7.84639C1.38335 7.65265 1.21934 7.37605 1.14885 7.08601C1.08032 6.80403 1.10011 6.50967 1.11676 6.26205L1.11863 6.23415C1.16745 5.83254 1.5556 4.99887 2.7332 4.92037C3.92219 4.8411 5.11468 5.34803 5.56757 5.61459L4.83145 7.58871L4.18977 7.58877ZM15.9437 1.4333C17.4792 1.83259 19.198 2.69719 20.0047 4.5544L21.0643 7.58871H4.93891L5.99489 4.75679C6.82592 2.84239 8.58392 1.92751 10.1515 1.49191C10.9344 1.27435 11.6655 1.17771 12.201 1.13554C12.4686 1.11446 12.6871 1.10701 12.8383 1.10482C12.9139 1.10372 12.9727 1.10394 13.0123 1.10443C13.0322 1.10467 13.0473 1.10498 13.0573 1.10523C13.0623 1.10535 13.066 1.10546 13.0685 1.10553L13.0712 1.10562L13.0719 1.10564L13.0764 1.10581L13.0809 1.10556L13.081 1.10556L13.0816 1.10553L13.0842 1.1054C13.0866 1.10528 13.0903 1.10511 13.0952 1.10491C13.105 1.10449 13.1198 1.10393 13.1393 1.10335C13.1782 1.10219 13.2359 1.10096 13.31 1.10073C13.4583 1.10026 13.6726 1.10379 13.935 1.11981C14.4601 1.15187 15.1768 1.23386 15.9437 1.4333Z" stroke="#616161"/>
</svg>

<svg width="26" height="20" viewBox="0 0 26 20" fill="none" xmlns="http://www.w3.org/2000/svg"><path fill-rule="evenodd" clip-rule="evenodd" d="M7.368 10.501c-.478-.284-1.217-.497-1.847-.434-.315.03-.608.131-.826.331-.22.2-.357.497-.372.907-.018.397.28 1.19 1.36 1.644.547.23 1.096.183 1.546.032.45-.15.806-.407.97-.606.17-.206.22-.523.1-.862-.12-.34-.412-.703-.931-1.012zm-2.944.808c.014-.388.143-.657.339-.837.197-.18.466-.275.768-.305.605-.06 1.323.145 1.785.42.504.301.778.647.889.96.11.312.06.59-.084.764-.15.182-.489.429-.924.575-.433.145-.956.188-1.474-.03-1.048-.44-1.315-1.198-1.299-1.547h0zm14.187-.808c.478-.284 1.217-.497 1.847-.434.315.03.608.131.826.331.22.2.357.497.372.907.018.396-.28 1.19-1.36 1.644-.547.23-1.096.183-1.546.032-.45-.15-.806-.407-.97-.606-.17-.207-.22-.523-.1-.862.12-.34.412-.703.931-1.012zm2.944.808c-.014-.388-.143-.657-.339-.837-.197-.18-.466-.275-.768-.305-.605-.06-1.323.145-1.785.42-.504.301-.778.647-.889.96-.11.312-.06.59.084.764.15.182.489.429.924.574.433.146.956.189 1.474-.03 1.048-.44 1.315-1.197 1.299-1.546h0z" stroke="#616161"/><path fill-rule="evenodd" clip-rule="evenodd" d="M5.901 4.72c1.697-3.913 7.175-3.715 7.175-3.715s5.375-.289 7.023 3.513l.343.984c.502-.28 1.665-.751 2.831-.674 1.238.083 1.656.966 1.709 1.404v.001l.002.035c.016.245.037.553-.035.85a1.225 1.225 0 01-.648.826 1.74 1.74 0 01-.937.21c.527.443.863 1.108.863 1.851V16.6a2.165 2.165 0 01-4.33 0v-1.359H6.103v1.36a2.165 2.165 0 01-4.33 0v-6.596c0-.748.34-1.417.874-1.86a1.74 1.74 0 01-.948-.21 1.225 1.225 0 01-.648-.825c-.072-.298-.051-.606-.035-.85l.002-.035v-.002c.053-.438.47-1.32 1.709-1.403 1.203-.08 2.402.424 2.876.699l.298-.8zm18.225 10.42H1.874v-5.135A2.316 2.316 0 014.19 7.69h17.62a2.316 2.316 0 012.316 2.316v5.135zm-4.128.101v1.36a2.064 2.064 0 004.128 0v-1.36h-4.128zm-13.996 0H1.874v1.36a2.064 2.064 0 004.128 0v-1.36zM23.23 8.05h.043l.052.002h0l.029.002a1.64 1.64 0 00.9-.198c.363-.194.527-.47.597-.76.069-.282.049-.577.032-.824l-.002-.028c-.048-.402-.437-1.236-1.614-1.314-1.153-.077-2.31.397-2.791.67l.695 1.99h.64c.53 0 1.02.17 1.419.46zM4.19 7.59c-.526 0-1.012.168-1.409.453a.381.381 0 00-.054-.002l-.052.003h-.01l-.018.001a1.64 1.64 0 01-.9-.198 1.124 1.124 0 01-.598-.76c-.069-.282-.049-.576-.032-.824l.002-.028C1.167 5.833 1.556 5 2.733 4.92c1.19-.079 2.382.428 2.835.695L4.83 7.589h-.64zm11.754-6.156c1.535.4 3.254 1.264 4.06 3.121l1.06 3.035H4.94l1.056-2.832c.83-1.915 2.589-2.83 4.157-3.265a10.978 10.978 0 012.905-.387h.027a1.252 1.252 0 01.055-.002 9.838 9.838 0 01.796.016c.525.033 1.242.115 2.009.314z" stroke="#616161"/></svg>
